X: 863
T: Young Francis Mooney
N:"Collected by F.O'Neill"
B:O'Neill's 863
Z:Transcribed by Dan G. Petersen, dangp@post6.tele.dk
M:6/8
L:1/8
K:Em
D|EFE G2A|BAB d2A|FDD DED|FAG FED|
EFE G2A|BAB d2e|fe^d efg|fee e2:|
B|efe fdB|efe fdB|ded dAF|d^cd Bd^d|
efe fdB|e^de g2a|bag faf|{a}gee e2:|


